_includes/icons/ios-coffee-to-go.svg

<svg fill="#666" height="50" viewBox="0 0 50 50" width="50" xmlns="http://www.w3.org/2000/svg"><path d="m13.59375 0c-1.53125 0-2.910156 1.011719-3.21875 2.53125v.03125l-.25 1.4375h-.125c-1.992187 0-3.394531 1.390625-4.09375 2.96875s-.90625 3.417969-.90625 5.03125c0 .550781.449219 1 1 1h1.15625l4.9375 34.875v.03125c.210938 1.304688 1.382813 2.09375 2.65625 2.09375h20.5c1.273438 0 2.445313-.792969 2.65625-2.09375 0-.011719 0-.019531 0-.03125l4.9375-34.875h1.15625c.550781 0 1-.449219 1-1 0-1.613281-.207031-3.453125-.90625-5.03125s-2.101562-2.96875-4.09375-2.96875h-.125l-.25-1.4375c0-.011719 0-.019531 0-.03125-.308594-1.519531-1.6875-2.53125-3.21875-2.53125zm0 2h22.8125c.5625 0 1.167969.503906 1.25.90625l.15625 1.09375h-25.625l.15625-1.09375c.082031-.402344.6875-.90625 1.25-.90625zm-2.46875 3.96875h.0625c.0625.015625.125.027344.1875.03125h27.1875c.0625-.003906.125-.015625.1875-.03125h.03125.0625c.050781.015625.101563.023438.15625.03125h1c1.152344 0 1.765625.621094 2.28125 1.78125.390625.886719.480469 2.082031.5625 3.21875h-35.6875c.082031-1.136719.171875-2.332031.5625-3.21875.515625-1.160156 1.128906-1.78125 2.28125-1.78125h1c.042969-.007812.085938-.019531.125-.03125zm-1.96875 7.03125h31.6875l-1.5625 11h-5.28125c-1.5625-4.042969-4.921875-7-9-7s-7.4375 2.957031-9 7h-5.28125zm15.84375 6c3.304688 0 6.230469 2.542969 7.4375 6.3125.132813.40625.511719.683594.9375.6875h5.625l-.84375 6h-4.78125c-.425781.003906-.804687.28125-.9375.6875-1.207031 3.769531-4.132812 6.3125-7.4375 6.3125-3.304687 0-6.230469-2.542969-7.4375-6.3125-.132812-.40625-.511719-.683594-.9375-.6875h-4.78125l-.84375-6h5.625c.425781-.003906.804688-.28125.9375-.6875 1.207031-3.769531 4.132813-6.3125 7.4375-6.3125zm0 4c-2.886719 0-5 2.804688-5 6 0 3.195313 2.113281 6 5 6s5-2.804687 5-6c0-3.195312-2.113281-6-5-6zm0 2c1.535156 0 3 1.671875 3 4s-1.464844 4-3 4-3-1.671875-3-4 1.464844-4 3-4zm-12.875 9h3.875c1.5625 4.042969 4.921875 7 9 7s7.4375-2.957031 9-7h3.875l-1.9375 13.5625c-.015625.105469-.347656.4375-.6875.4375h-20.5c-.339844 0-.671875-.332031-.6875-.4375z"/></svg>

<svg xmlns="http://www.w3.org/2000/svg" viewBox="0 0 50 50" width="50" height="50" fill="#666"><path d="M 13.59375 0 C 12.0625 0 10.683594 1.011719 10.375 2.53125 C 10.375 2.542969 10.375 2.550781 10.375 2.5625 L 10.125 4 L 10 4 C 8.007813 4 6.605469 5.390625 5.90625 6.96875 C 5.207031 8.546875 5 10.386719 5 12 C 5 12.550781 5.449219 13 6 13 L 7.15625 13 L 12.09375 47.875 C 12.09375 47.886719 12.09375 47.894531 12.09375 47.90625 C 12.304688 49.210938 13.476563 50 14.75 50 L 35.25 50 C 36.523438 50 37.695313 49.207031 37.90625 47.90625 C 37.90625 47.894531 37.90625 47.886719 37.90625 47.875 L 42.84375 13 L 44 13 C 44.550781 13 45 12.550781 45 12 C 45 10.386719 44.792969 8.546875 44.09375 6.96875 C 43.394531 5.390625 41.992188 4 40 4 L 39.875 4 L 39.625 2.5625 C 39.625 2.550781 39.625 2.542969 39.625 2.53125 C 39.316406 1.011719 37.9375 0 36.40625 0 Z M 13.59375 2 L 36.40625 2 C 36.96875 2 37.574219 2.503906 37.65625 2.90625 L 37.8125 4 L 12.1875 4 L 12.34375 2.90625 C 12.425781 2.503906 13.03125 2 13.59375 2 Z M 11.125 5.96875 C 11.144531 5.96875 11.167969 5.96875 11.1875 5.96875 C 11.25 5.984375 11.3125 5.996094 11.375 6 L 38.5625 6 C 38.625 5.996094 38.6875 5.984375 38.75 5.96875 C 38.761719 5.96875 38.769531 5.96875 38.78125 5.96875 C 38.800781 5.96875 38.824219 5.96875 38.84375 5.96875 C 38.894531 5.984375 38.945313 5.992188 39 6 L 40 6 C 41.152344 6 41.765625 6.621094 42.28125 7.78125 C 42.671875 8.667969 42.761719 9.863281 42.84375 11 L 7.15625 11 C 7.238281 9.863281 7.328125 8.667969 7.71875 7.78125 C 8.234375 6.621094 8.847656 6 10 6 L 11 6 C 11.042969 5.992188 11.085938 5.980469 11.125 5.96875 Z M 9.15625 13 L 40.84375 13 L 39.28125 24 L 34 24 C 32.4375 19.957031 29.078125 17 25 17 C 20.921875 17 17.5625 19.957031 16 24 L 10.71875 24 Z M 25 19 C 28.304688 19 31.230469 21.542969 32.4375 25.3125 C 32.570313 25.71875 32.949219 25.996094 33.375 26 L 39 26 L 38.15625 32 L 33.375 32 C 32.949219 32.003906 32.570313 32.28125 32.4375 32.6875 C 31.230469 36.457031 28.304688 39 25 39 C 21.695313 39 18.769531 36.457031 17.5625 32.6875 C 17.429688 32.28125 17.050781 32.003906 16.625 32 L 11.84375 32 L 11 26 L 16.625 26 C 17.050781 25.996094 17.429688 25.71875 17.5625 25.3125 C 18.769531 21.542969 21.695313 19 25 19 Z M 25 23 C 22.113281 23 20 25.804688 20 29 C 20 32.195313 22.113281 35 25 35 C 27.886719 35 30 32.195313 30 29 C 30 25.804688 27.886719 23 25 23 Z M 25 25 C 26.535156 25 28 26.671875 28 29 C 28 31.328125 26.535156 33 25 33 C 23.464844 33 22 31.328125 22 29 C 22 26.671875 23.464844 25 25 25 Z M 12.125 34 L 16 34 C 17.5625 38.042969 20.921875 41 25 41 C 29.078125 41 32.4375 38.042969 34 34 L 37.875 34 L 35.9375 47.5625 C 35.921875 47.667969 35.589844 48 35.25 48 L 14.75 48 C 14.410156 48 14.078125 47.667969 14.0625 47.5625 Z"/></svg>
